assets/sonr-icons/passkey.svg

<svg width="24" height="24" viewBox="0 0 24 24" fill="none" xmlns="http://www.w3.org/2000/svg">
<path d="M3 16.125V18.9375C3 19.4553 3.41974 19.875 3.9375 19.875H14.6875C15.2053 19.875 15.625 19.4553 15.625 18.9375V16.125C12.3438 13.3125 15.625 12.375 11.875 12.375L6.75 12.375C4.67893 12.375 3 14.0539 3 16.125Z" fill="black"/>
<path d="M13.75 6.75C13.75 8.82107 12.071 10.5 10 10.5C7.92893 10.5 6.25 8.82107 6.25 6.75C6.25 4.67893 7.92893 3 10 3C12.071 3 13.75 4.67893 13.75 6.75Z" fill="black"/>
<path fill-rule="evenodd" clip-rule="evenodd" d="M21.7 12.6759C21.7 10.6457 20.0882 8.99983 18.1 8.99983C16.1118 8.99983 14.5 10.6457 14.5 12.6759C14.5 14.0366 15.224 15.2247 16.3 15.8602V19.1624C16.3 19.325 16.3633 19.4808 16.4758 19.5958L17.6757 20.8205C17.91 21.0597 18.2899 21.0596 18.5241 20.8204L19.7243 19.5949C19.8368 19.48 19.9 19.3241 19.9 19.1617V15.8602C20.976 15.2247 21.7 14.0366 21.7 12.6759ZM18.1 11.4506C18.7628 11.4506 19.3 11.9992 19.3 12.6759C19.3 13.3527 18.7628 13.9013 18.1 13.9013C17.4372 13.9013 16.9 13.3527 16.9 12.6759C16.9 11.9992 17.4372 11.4506 18.1 11.4506Z" fill="black"/>
</svg>

<svg xmlns="http://www.w3.org/2000/svg" width="24" height="24" fill="none"><path fill="currentColor" d="M3 16.125v2.813c0 .517.42.937.938.937h10.75c.517 0 .937-.42.937-.937v-2.813c-3.281-2.812 0-3.75-3.75-3.75H6.75A3.75 3.75 0 0 0 3 16.125M13.75 6.75a3.75 3.75 0 1 1-7.5 0 3.75 3.75 0 0 1 7.5 0"/><path fill="currentColor" fill-rule="evenodd" d="M21.7 12.676C21.7 10.646 20.088 9 18.1 9s-3.6 1.646-3.6 3.676c0 1.36.724 2.549 1.8 3.184v3.302a.62.62 0 0 0 .176.434l1.2 1.224c.234.24.614.24.848 0l1.2-1.225a.62.62 0 0 0 .176-.433V15.86a3.69 3.69 0 0 0 1.8-3.184m-3.6-1.225c.663 0 1.2.548 1.2 1.225s-.537 1.225-1.2 1.225-1.2-.548-1.2-1.225.537-1.225 1.2-1.225" clip-rule="evenodd"/></svg>
